Numix-GalliumOS/22/status/weather-snow-scattered.svg

<?xml version="1.0" encoding="UTF-8" standalone="no"?>
<svg
   xmlns:dc="http://purl.org/dc/elements/1.1/"
   xmlns:cc="http://creativecommons.org/ns#"
   xmlns:rdf="http://www.w3.org/1999/02/22-rdf-syntax-ns#"
   xmlns:svg="http://www.w3.org/2000/svg"
   xmlns="http://www.w3.org/2000/svg"
   xmlns:sodipodi="http://sodipodi.sourceforge.net/DTD/sodipodi-0.dtd"
   xmlns:inkscape="http://www.inkscape.org/namespaces/inkscape"
   width="22"
   viewBox="0 0 22 22"
   height="22"
   style="enable-background:new"
   id="svg21249"
   version="1.1"
   inkscape:version="0.91 r"
   sodipodi:docname="weather-snow-scattered.svg">
  <metadata
     id="metadata21352">
    <rdf:RDF>
      <cc:Work
         rdf:about="">
        <dc:format>image/svg+xml</dc:format>
        <dc:type
           rdf:resource="http://purl.org/dc/dcmitype/StillImage" />
        <dc:title></dc:title>
      </cc:Work>
    </rdf:RDF>
  </metadata>
  <sodipodi:namedview
     pagecolor="#ffffff"
     bordercolor="#666666"
     borderopacity="1"
     objecttolerance="10"
     gridtolerance="10"
     guidetolerance="10"
     inkscape:pageopacity="0"
     inkscape:pageshadow="2"
     inkscape:window-width="1920"
     inkscape:window-height="1056"
     id="namedview21350"
     showgrid="false"
     inkscape:zoom="20.85965"
     inkscape:cx="-3.0970161"
     inkscape:cy="5.4490596"
     inkscape:window-x="0"
     inkscape:window-y="24"
     inkscape:window-maximized="1"
     inkscape:current-layer="svg21249" />
  <defs
     id="defs21251" />
  <path
     style="fill:#ececec;fill-opacity:1"
     d="M 8.0996094 3.5 C 7.9444274 3.4990478 7.7818533 3.5069399 7.6132812 3.5292969 C 4.9210793 3.8863794 5.0039063 6.2675781 5.0039062 6.2675781 C 3.9012243 6.460736 3 7.4535074 3 8.4902344 C 3 9.5269484 4.1518345 10.444125 5.1171875 10.710938 C 5.6914135 10.86964 6.4453125 10.710938 6.4453125 10.710938 C 6.7861785 11.330372 7.9075752 11.742187 8.6914062 11.742188 C 9.9694852 11.742188 11.281459 11.306076 11.583984 10.710938 C 11.583984 10.710938 16.876056 11.147371 17.974609 10.710938 C 19.573854 10.075584 19.077756 8.0891228 18.013672 7.4179688 C 16.949596 6.7468135 15.554688 7.21875 15.554688 7.21875 C 15.554688 7.21875 15.551677 5.8541173 14.046875 5.2011719 C 12.542061 4.5482283 11.267578 5.9902344 11.267578 5.9902344 C 11.267578 5.9902344 10.427325 3.5147851 8.0996094 3.5 z M 12.634766 12.326172 C 12.591376 12.336882 12.562113 12.379071 12.564453 12.425781 L 12.564453 12.722656 L 12.308594 12.554688 C 12.204322 12.483918 12.103724 12.647665 12.208984 12.716797 L 12.564453 12.951172 L 12.564453 13.492188 L 12.119141 13.222656 L 12.101562 12.783203 C 12.099362 12.720093 12.040151 12.675475 11.982422 12.693359 C 11.940912 12.706039 11.913166 12.747709 11.916016 12.792969 L 11.929688 13.109375 L 11.685547 12.960938 C 11.57598 12.866457 11.459315 13.066809 11.589844 13.125 L 11.835938 13.273438 L 11.570312 13.421875 C 11.433153 13.470205 11.54104 13.681683 11.65625 13.589844 L 12.025391 13.386719 L 12.474609 13.660156 L 12.025391 13.927734 L 11.65625 13.730469 C 11.54104 13.638629 11.433152 13.850104 11.570312 13.898438 L 11.835938 14.041016 L 11.589844 14.191406 C 11.482735 14.257546 11.578407 14.425464 11.685547 14.359375 L 11.929688 14.210938 L 11.916016 14.527344 C 11.913316 14.655884 12.098061 14.661722 12.101562 14.533203 L 12.119141 14.095703 L 12.564453 13.828125 L 12.564453 14.369141 L 12.208984 14.601562 C 12.105008 14.671003 12.204624 14.835042 12.308594 14.765625 L 12.564453 14.597656 L 12.564453 14.894531 C 12.564453 15.023478 12.748047 15.023478 12.748047 14.894531 L 12.748047 14.597656 L 12.998047 14.765625 C 13.102036 14.835045 13.201632 14.671005 13.097656 14.601562 L 12.748047 14.369141 L 12.748047 13.824219 L 13.193359 14.095703 L 13.210938 14.533203 C 13.214438 14.661679 13.39915 14.655843 13.396484 14.527344 L 13.380859 14.210938 L 13.626953 14.359375 C 13.73616 14.430155 13.83149 14.251882 13.716797 14.191406 L 13.476562 14.041016 L 13.740234 13.898438 C 13.87739 13.850108 13.77146 13.638636 13.65625 13.730469 L 13.283203 13.927734 L 12.837891 13.660156 L 13.283203 13.392578 L 13.65625 13.589844 C 13.77146 13.681684 13.877395 13.470208 13.740234 13.421875 L 13.470703 13.273438 L 13.716797 13.125 C 13.862454 13.07668 13.739913 12.853034 13.626953 12.960938 L 13.380859 13.109375 L 13.396484 12.792969 C 13.400784 12.725719 13.338924 12.67416 13.277344 12.693359 C 13.239264 12.705059 13.212377 12.741603 13.210938 12.783203 L 13.193359 13.222656 L 12.748047 13.492188 L 12.748047 12.951172 L 13.097656 12.716797 C 13.203012 12.647687 13.102317 12.48382 12.998047 12.554688 L 12.748047 12.722656 L 12.748047 12.425781 C 12.749447 12.370401 12.707077 12.324712 12.654297 12.326172 C 12.647997 12.325492 12.641056 12.325492 12.634766 12.326172 z M 6.59375 13.285156 C 6.55036 13.295866 6.5210975 13.338056 6.5234375 13.384766 L 6.5234375 13.681641 L 6.2675781 13.513672 C 6.1633061 13.442902 6.0646619 13.606649 6.1699219 13.675781 L 6.5234375 13.910156 L 6.5234375 14.451172 L 6.0800781 14.181641 L 6.0605469 13.740234 C 6.0583469 13.677124 5.9991352 13.63446 5.9414062 13.652344 C 5.8998963 13.665024 5.87215 13.70474 5.875 13.75 L 5.890625 14.068359 L 5.6445312 13.919922 C 5.5349642 13.825442 5.4182991 14.025793 5.5488281 14.083984 L 5.7949219 14.232422 L 5.53125 14.380859 C 5.3940894 14.429189 5.5000244 14.640667 5.6152344 14.548828 L 5.984375 14.345703 L 6.4335938 14.619141 L 5.984375 14.886719 L 5.6152344 14.6875 C 5.5000244 14.59566 5.3940894 14.809089 5.53125 14.857422 L 5.7949219 15 L 5.5488281 15.150391 C 5.4417191 15.216531 5.5373912 15.384448 5.6445312 15.318359 L 5.890625 15.169922 L 5.875 15.486328 C 5.8723 15.614868 6.0570459 15.620707 6.0605469 15.492188 L 6.0800781 15.054688 L 6.5234375 14.787109 L 6.5234375 15.328125 L 6.1699219 15.560547 C 6.0659459 15.629987 6.1636081 15.794026 6.2675781 15.724609 L 6.5234375 15.556641 L 6.5234375 15.853516 C 6.5234375 15.982463 6.7070313 15.982463 6.7070312 15.853516 L 6.7070312 15.556641 L 6.9589844 15.724609 C 7.0629734 15.794029 7.1625697 15.62999 7.0585938 15.560547 L 6.7070312 15.328125 L 6.7070312 14.783203 L 7.1523438 15.054688 L 7.171875 15.492188 C 7.175375 15.620663 7.3581348 15.614827 7.3554688 15.486328 L 7.3417969 15.169922 L 7.5878906 15.318359 C 7.6970976 15.389139 7.7924274 15.210867 7.6777344 15.150391 L 7.4355469 15 L 7.7011719 14.857422 C 7.8383279 14.809092 7.7304444 14.595667 7.6152344 14.6875 L 7.2421875 14.886719 L 6.796875 14.619141 L 7.2421875 14.351562 L 7.6152344 14.548828 C 7.7304444 14.640668 7.8383329 14.429192 7.7011719 14.380859 L 7.4316406 14.232422 L 7.6777344 14.083984 C 7.8233914 14.035664 7.7008506 13.812019 7.5878906 13.919922 L 7.3417969 14.068359 L 7.3554688 13.75 C 7.3597687 13.68275 7.2979081 13.633145 7.2363281 13.652344 C 7.1982481 13.664044 7.173315 13.698634 7.171875 13.740234 L 7.1523438 14.181641 L 6.7070312 14.451172 L 6.7070312 13.910156 L 7.0566406 13.675781 C 7.1619966 13.606671 7.0632544 13.442804 6.9589844 13.513672 L 6.7070312 13.681641 L 6.7070312 13.384766 C 6.7084313 13.329386 6.6660613 13.283696 6.6132812 13.285156 C 6.6069812 13.284476 6.60004 13.284476 6.59375 13.285156 z M 16.902344 14.339844 C 16.858954 14.350554 16.827738 14.392743 16.830078 14.439453 L 16.830078 14.736328 L 16.576172 14.568359 C 16.4719 14.497589 16.371303 14.661337 16.476562 14.730469 L 16.830078 14.964844 L 16.830078 15.505859 L 16.386719 15.236328 L 16.367188 14.794922 C 16.364988 14.731812 16.307729 14.689147 16.25 14.707031 C 16.20849 14.719711 16.180744 14.759427 16.183594 14.804688 L 16.197266 15.123047 L 15.951172 14.974609 C 15.841605 14.880129 15.726893 15.080481 15.857422 15.138672 L 16.101562 15.287109 L 15.837891 15.435547 C 15.70073 15.483877 15.808618 15.695355 15.923828 15.603516 L 16.291016 15.400391 L 16.740234 15.673828 L 16.291016 15.941406 L 15.923828 15.742188 C 15.808618 15.650348 15.70073 15.863776 15.837891 15.912109 L 16.101562 16.054688 L 15.857422 16.205078 C 15.750313 16.271218 15.844032 16.439136 15.951172 16.373047 L 16.197266 16.224609 L 16.183594 16.541016 C 16.180894 16.669556 16.363687 16.675394 16.367188 16.546875 L 16.386719 16.109375 L 16.830078 15.841797 L 16.830078 16.382812 L 16.476562 16.615234 C 16.372587 16.684674 16.472202 16.848714 16.576172 16.779297 L 16.830078 16.611328 L 16.830078 16.908203 C 16.830078 17.03715 17.015625 17.03715 17.015625 16.908203 L 17.015625 16.611328 L 17.265625 16.779297 C 17.369614 16.848717 17.46921 16.684677 17.365234 16.615234 L 17.015625 16.382812 L 17.015625 15.837891 L 17.458984 16.109375 L 17.478516 16.546875 C 17.482016 16.675351 17.664775 16.669515 17.662109 16.541016 L 17.648438 16.224609 L 17.894531 16.373047 C 18.003738 16.443827 18.099068 16.265554 17.984375 16.205078 L 17.742188 16.054688 L 18.007812 15.912109 C 18.144969 15.863779 18.037085 15.650355 17.921875 15.742188 L 17.548828 15.941406 L 17.105469 15.673828 L 17.548828 15.40625 L 17.921875 15.603516 C 18.037085 15.695356 18.144974 15.48388 18.007812 15.435547 L 17.738281 15.287109 L 17.984375 15.138672 C 18.130032 15.090352 18.007491 14.866706 17.894531 14.974609 L 17.648438 15.123047 L 17.662109 14.804688 C 17.666409 14.737438 17.606502 14.687832 17.544922 14.707031 C 17.506842 14.718731 17.479956 14.753322 17.478516 14.794922 L 17.458984 15.236328 L 17.015625 15.505859 L 17.015625 14.964844 L 17.365234 14.730469 C 17.47059 14.661359 17.369895 14.497491 17.265625 14.568359 L 17.015625 14.736328 L 17.015625 14.439453 C 17.017025 14.384073 16.972702 14.338384 16.919922 14.339844 C 16.914252 14.339232 16.90801 14.339354 16.902344 14.339844 z M 10.978516 15.833984 C 10.935126 15.844694 10.905863 15.886884 10.908203 15.933594 L 10.908203 16.230469 L 10.652344 16.0625 C 10.548072 15.99173 10.447474 16.15743 10.552734 16.226562 L 10.908203 16.458984 L 10.908203 17 L 10.462891 16.732422 L 10.445312 16.291016 C 10.443112 16.227906 10.383901 16.183288 10.326172 16.201172 C 10.284662 16.213852 10.256916 16.255521 10.259766 16.300781 L 10.273438 16.617188 L 10.029297 16.46875 C 9.9197298 16.37427 9.8030646 16.574621 9.9335938 16.632812 L 10.179688 16.78125 L 9.9160156 16.929688 C 9.778855 16.978017 9.88479 17.191448 10 17.099609 L 10.369141 16.896484 L 10.818359 17.167969 L 10.369141 17.435547 L 10 17.238281 C 9.8847899 17.146441 9.7788549 17.357917 9.9160156 17.40625 L 10.179688 17.550781 L 9.9335938 17.699219 C 9.8264848 17.765359 9.9221569 17.933277 10.029297 17.867188 L 10.273438 17.71875 L 10.259766 18.037109 C 10.257066 18.165649 10.441812 18.169535 10.445312 18.041016 L 10.462891 17.605469 L 10.908203 17.337891 L 10.908203 17.876953 L 10.552734 18.111328 C 10.448758 18.180768 10.548374 18.342855 10.652344 18.273438 L 10.908203 18.105469 L 10.908203 18.402344 C 10.908203 18.531291 11.091797 18.531291 11.091797 18.402344 L 11.091797 18.105469 L 11.341797 18.273438 C 11.445786 18.342858 11.545382 18.180771 11.441406 18.111328 L 11.091797 17.876953 L 11.091797 17.332031 L 11.537109 17.605469 L 11.554688 18.041016 C 11.558188 18.169492 11.7429 18.165608 11.740234 18.037109 L 11.726562 17.71875 L 11.970703 17.867188 C 12.07991 17.937967 12.17524 17.759695 12.060547 17.699219 L 11.820312 17.550781 L 12.083984 17.40625 C 12.22114 17.35792 12.11521 17.146448 12 17.238281 L 11.626953 17.435547 L 11.181641 17.167969 L 11.626953 16.900391 L 12 17.099609 C 12.11521 17.191449 12.221145 16.97802 12.083984 16.929688 L 11.814453 16.78125 L 12.060547 16.632812 C 12.206204 16.584492 12.083663 16.360847 11.970703 16.46875 L 11.726562 16.617188 L 11.740234 16.300781 C 11.744534 16.233531 11.682674 16.181973 11.621094 16.201172 C 11.583014 16.212872 11.556128 16.249416 11.554688 16.291016 L 11.537109 16.732422 L 11.091797 17 L 11.091797 16.458984 L 11.441406 16.226562 C 11.546762 16.157453 11.446067 15.991632 11.341797 16.0625 L 11.091797 16.230469 L 11.091797 15.933594 C 11.093197 15.878214 11.050827 15.832524 10.998047 15.833984 C 10.991747 15.833304 10.984806 15.833304 10.978516 15.833984 z "
     id="path21348" />
</svg>

<svg xmlns="http://www.w3.org/2000/svg" viewBox="0 0 22 22" style="enable-background:new">
 <path d="m 8.1 3.5 c -0.155 -0.001 -0.318 0.007 -0.486 0.029 c -2.692 0.357 -2.609 2.738 -2.609 2.738 c -1.103 0.193 -2 1.186 -2 2.223 c 0 1.037 1.152 1.954 2.117 2.221 c 0.574 0.159 1.328 0 1.328 0 c 0.341 0.619 1.462 1.031 2.246 1.031 c 1.278 0 2.59 -0.436 2.893 -1.031 c 0 0 5.292 0.436 6.391 0 c 1.599 -0.635 1.103 -2.622 0.039 -3.293 c -1.064 -0.671 -2.459 -0.199 -2.459 -0.199 c 0 0 -0.003 -1.365 -1.508 -2.02 c -1.505 -0.653 -2.779 0.789 -2.779 0.789 c 0 0 -0.84 -2.475 -3.168 -2.49 z m 4.535 8.826 c -0.043 0.011 -0.073 0.053 -0.07 0.1 l 0 0.297 l -0.256 -0.168 c -0.104 -0.071 -0.205 0.093 -0.1 0.162 l 0.355 0.234 l 0 0.541 l -0.445 -0.27 l -0.018 -0.439 c -0.002 -0.063 -0.061 -0.108 -0.119 -0.09 c -0.042 0.013 -0.069 0.054 -0.066 0.1 l 0.014 0.316 l -0.244 -0.148 c -0.11 -0.094 -0.226 0.106 -0.096 0.164 l 0.246 0.148 l -0.266 0.148 c -0.137 0.048 -0.029 0.26 0.086 0.168 l 0.369 -0.203 l 0.449 0.273 l -0.449 0.268 l -0.369 -0.197 c -0.115 -0.092 -0.223 0.12 -0.086 0.168 l 0.266 0.143 l -0.246 0.15 c -0.107 0.066 -0.011 0.234 0.096 0.168 l 0.244 -0.148 l -0.014 0.316 c -0.003 0.129 0.182 0.134 0.186 0.006 l 0.018 -0.438 l 0.445 -0.268 l 0 0.541 l -0.355 0.232 c -0.104 0.069 -0.004 0.233 0.1 0.164 l 0.256 -0.168 l 0 0.297 c 0 0.129 0.184 0.129 0.184 0 l 0 -0.297 l 0.25 0.168 c 0.104 0.069 0.204 -0.095 0.1 -0.164 l -0.35 -0.232 l 0 -0.545 l 0.445 0.271 l 0.018 0.438 c 0.003 0.128 0.188 0.123 0.186 -0.006 l -0.016 -0.316 l 0.246 0.148 c 0.109 0.071 0.205 -0.107 0.09 -0.168 l -0.24 -0.15 l 0.264 -0.143 c 0.137 -0.048 0.031 -0.26 -0.084 -0.168 l -0.373 0.197 l -0.445 -0.268 l 0.445 -0.268 l 0.373 0.197 c 0.115 0.092 0.221 -0.12 0.084 -0.168 l -0.27 -0.148 l 0.246 -0.148 c 0.146 -0.048 0.023 -0.272 -0.09 -0.164 l -0.246 0.148 l 0.016 -0.316 c 0.004 -0.067 -0.058 -0.119 -0.119 -0.1 c -0.038 0.012 -0.065 0.048 -0.066 0.09 l -0.018 0.439 l -0.445 0.27 l 0 -0.541 l 0.35 -0.234 c 0.105 -0.069 0.005 -0.233 -0.1 -0.162 l -0.25 0.168 l 0 -0.297 c 0.001 -0.055 -0.041 -0.101 -0.094 -0.1 c -0.006 -0.001 -0.013 -0.001 -0.02 0 z m -6.04 0.959 c -0.043 0.011 -0.073 0.053 -0.07 0.1 l 0 0.297 l -0.256 -0.168 c -0.104 -0.071 -0.203 0.093 -0.098 0.162 l 0.354 0.234 l 0 0.541 l -0.443 -0.27 l -0.02 -0.441 c -0.002 -0.063 -0.061 -0.106 -0.119 -0.088 c -0.042 0.013 -0.069 0.052 -0.066 0.098 l 0.016 0.318 l -0.246 -0.148 c -0.11 -0.094 -0.226 0.106 -0.096 0.164 l 0.246 0.148 l -0.264 0.148 c -0.137 0.048 -0.031 0.26 0.084 0.168 l 0.369 -0.203 l 0.449 0.273 l -0.449 0.268 l -0.369 -0.199 c -0.115 -0.092 -0.221 0.122 -0.084 0.17 l 0.264 0.143 l -0.246 0.15 c -0.107 0.066 -0.011 0.234 0.096 0.168 l 0.246 -0.148 l -0.016 0.316 c -0.003 0.129 0.182 0.134 0.186 0.006 l 0.02 -0.438 l 0.443 -0.268 l 0 0.541 l -0.354 0.232 c -0.104 0.069 -0.006 0.233 0.098 0.164 l 0.256 -0.168 l 0 0.297 c 0 0.129 0.184 0.129 0.184 0 l 0 -0.297 l 0.252 0.168 c 0.104 0.069 0.204 -0.095 0.1 -0.164 l -0.352 -0.232 l 0 -0.545 l 0.445 0.271 l 0.02 0.438 c 0.003 0.128 0.186 0.123 0.184 -0.006 l -0.014 -0.316 l 0.246 0.148 c 0.109 0.071 0.205 -0.107 0.09 -0.168 l -0.242 -0.15 l 0.266 -0.143 c 0.137 -0.048 0.029 -0.262 -0.086 -0.17 l -0.373 0.199 l -0.445 -0.268 l 0.445 -0.268 l 0.373 0.197 c 0.115 0.092 0.223 -0.12 0.086 -0.168 l -0.27 -0.148 l 0.246 -0.148 c 0.146 -0.048 0.023 -0.272 -0.09 -0.164 l -0.246 0.148 l 0.014 -0.318 c 0.004 -0.067 -0.058 -0.117 -0.119 -0.098 c -0.038 0.012 -0.063 0.046 -0.064 0.088 l -0.02 0.441 l -0.445 0.27 l 0 -0.541 l 0.35 -0.234 c 0.105 -0.069 0.007 -0.233 -0.098 -0.162 l -0.252 0.168 l 0 -0.297 c 0.001 -0.055 -0.041 -0.101 -0.094 -0.1 c -0.006 -0.001 -0.013 -0.001 -0.02 0 z m 10.309 1.055 c -0.043 0.011 -0.075 0.053 -0.072 0.1 l 0 0.297 l -0.254 -0.168 c -0.104 -0.071 -0.205 0.093 -0.1 0.162 l 0.354 0.234 l 0 0.541 l -0.443 -0.27 l -0.02 -0.441 c -0.002 -0.063 -0.059 -0.106 -0.117 -0.088 c -0.042 0.013 -0.069 0.052 -0.066 0.098 l 0.014 0.318 l -0.246 -0.148 c -0.11 -0.094 -0.224 0.106 -0.094 0.164 l 0.244 0.148 l -0.264 0.148 c -0.137 0.048 -0.029 0.26 0.086 0.168 l 0.367 -0.203 l 0.449 0.273 l -0.449 0.268 l -0.367 -0.199 c -0.115 -0.092 -0.223 0.122 -0.086 0.17 l 0.264 0.143 l -0.244 0.15 c -0.107 0.066 -0.013 0.234 0.094 0.168 l 0.246 -0.148 l -0.014 0.316 c -0.003 0.129 0.18 0.134 0.184 0.006 l 0.02 -0.438 l 0.443 -0.268 l 0 0.541 l -0.354 0.232 c -0.104 0.069 -0.004 0.233 0.1 0.164 l 0.254 -0.168 l 0 0.297 c 0 0.129 0.186 0.129 0.186 0 l 0 -0.297 l 0.25 0.168 c 0.104 0.069 0.204 -0.095 0.1 -0.164 l -0.35 -0.232 l 0 -0.545 l 0.443 0.271 l 0.02 0.438 c 0.004 0.128 0.186 0.123 0.184 -0.006 l -0.014 -0.316 l 0.246 0.148 c 0.109 0.071 0.205 -0.107 0.09 -0.168 l -0.242 -0.15 l 0.266 -0.143 c 0.137 -0.048 0.029 -0.262 -0.086 -0.17 l -0.373 0.199 l -0.443 -0.268 l 0.443 -0.268 l 0.373 0.197 c 0.115 0.092 0.223 -0.12 0.086 -0.168 l -0.27 -0.148 l 0.246 -0.148 c 0.146 -0.048 0.023 -0.272 -0.09 -0.164 l -0.246 0.148 l 0.014 -0.318 c 0.004 -0.067 -0.056 -0.117 -0.117 -0.098 c -0.038 0.012 -0.065 0.046 -0.066 0.088 l -0.02 0.441 l -0.443 0.27 l 0 -0.541 l 0.35 -0.234 c 0.105 -0.069 0.005 -0.233 -0.1 -0.162 l -0.25 0.168 l 0 -0.297 c 0.001 -0.055 -0.043 -0.101 -0.096 -0.1 c -0.006 -0.001 -0.012 0 -0.018 0 z m -5.924 1.494 c -0.043 0.011 -0.073 0.053 -0.07 0.1 l 0 0.297 l -0.256 -0.168 c -0.104 -0.071 -0.205 0.095 -0.1 0.164 l 0.355 0.232 l 0 0.541 l -0.445 -0.268 l -0.018 -0.441 c -0.002 -0.063 -0.061 -0.108 -0.119 -0.09 c -0.042 0.013 -0.069 0.054 -0.066 0.1 l 0.014 0.316 l -0.244 -0.148 c -0.11 -0.094 -0.226 0.106 -0.096 0.164 l 0.246 0.148 l -0.264 0.148 c -0.137 0.048 -0.031 0.262 0.084 0.17 l 0.369 -0.203 l 0.449 0.271 l -0.449 0.268 l -0.369 -0.197 c -0.115 -0.092 -0.221 0.12 -0.084 0.168 l 0.264 0.145 l -0.246 0.148 c -0.107 0.066 -0.011 0.234 0.096 0.168 l 0.244 -0.148 l -0.014 0.318 c -0.003 0.129 0.182 0.132 0.186 0.004 l 0.018 -0.436 l 0.445 -0.268 l 0 0.539 l -0.355 0.234 c -0.104 0.069 -0.004 0.232 0.1 0.162 l 0.256 -0.168 l 0 0.297 c 0 0.129 0.184 0.129 0.184 0 l 0 -0.297 l 0.25 0.168 c 0.104 0.069 0.204 -0.093 0.1 -0.162 l -0.35 -0.234 l 0 -0.545 l 0.445 0.273 l 0.018 0.436 c 0.003 0.128 0.188 0.125 0.186 -0.004 l -0.014 -0.318 l 0.244 0.148 c 0.109 0.071 0.205 -0.107 0.09 -0.168 l -0.24 -0.148 l 0.264 -0.145 c 0.137 -0.048 0.031 -0.26 -0.084 -0.168 l -0.373 0.197 l -0.445 -0.268 l 0.445 -0.268 l 0.373 0.199 c 0.115 0.092 0.221 -0.122 0.084 -0.17 l -0.27 -0.148 l 0.246 -0.148 c 0.146 -0.048 0.023 -0.272 -0.09 -0.164 l -0.244 0.148 l 0.014 -0.316 c 0.004 -0.067 -0.058 -0.119 -0.119 -0.1 c -0.038 0.012 -0.065 0.048 -0.066 0.09 l -0.018 0.441 l -0.445 0.268 l 0 -0.541 l 0.35 -0.232 c 0.105 -0.069 0.005 -0.235 -0.1 -0.164 l -0.25 0.168 l 0 -0.297 c 0.001 -0.055 -0.041 -0.101 -0.094 -0.1 c -0.006 -0.001 -0.013 -0.001 -0.02 0 z" style="fill:#ececec;fill-opacity:1"/>
</svg>
